X:1602
T:F Doubling Scale
C: Kevin Fraser
B: https://bagpipes.ksfraser.com
O: Kevin Fraser
Z:Kevin Fraser
Q:1/4=78
K:HP
M:4/4
L:1/4
%%MIDI gracedivider 4
%%MIDI gchord
%%MIDI beatstring 
|| G {gfg}f A {gfg}f | B {gfg}f c {gfg}f |d {gfg}f e {gfg}f | f {gfg}f  g {afg}f  | 
w: EM chete EN chete   | O chete   O  chete  |A  chete  E  chete  | VE chete   DI chete  |
w: |||- thumb gracenote ^|
  a {fg}f  a {fg}f  | g {afg}f  f {gfg}f | e {gfg}f d {gfg}f | c {gfg}f B {gfg}f | 
w: I vete  I vete   | DI chete   VE chete  | E chete   A chete  | O chete   O  chete  |
w: ^ half doublings ^|||
   A {gfg}f G {gfg}f ||
w: EN chete  EM chete  ||
W: Note the High A gracenote from High G for this doubling!
W: Note the Half Doubling from High A
W:
W: http://svenax.net/site/canntaireachd/5/ has a consolidated Doubling and Throws page
W: without diagrams so the canntaireachd here might be for a different movement...
W: Doublings on F have 3 different Canntaireachd names depenteng on where the melody note is coming from.



